cssgg/arrow-top-left-r.svg

<svg
  width="24"
  height="24"
  viewBox="0 0 24 24"
  fill="none"
  xmlns="http://www.w3.org/2000/svg"
>
  <path
    d="M10 13.9633H8V7.96331H14V9.96331H11.4142L16.7438 15.2929L15.3296 16.7071L10 11.3775L10 13.9633Z"
    fill="currentColor"
  />
  <path
    fill-rule="evenodd"
    clip-rule="evenodd"
    d="M1 19C1 21.2091 2.79086 23 5 23H19C21.2091 23 23 21.2091 23 19V5C23 2.79086 21.2091 1 19 1H5C2.79086 1 1 2.79086 1 5V19ZM5 21H19C20.1046 21 21 20.1046 21 19V5C21 3.89543 20.1046 3 19 3H5C3.89543 3 3 3.89543 3 5V19C3 20.1046 3.89543 21 5 21Z"
    fill="currentColor"
  />
</svg>

<svg viewBox="0 0 24 24" xmlns="http://www.w3.org/2000/svg"><g><path d="M10 13.96H8v-6h6v2h-2.59l5.32 5.32 -1.42 1.41 -5.33-5.33v2.58Z"/><path fill-rule="evenodd" d="M1 19c0 2.2 1.79 4 4 4h14c2.2 0 4-1.8 4-4V5c0-2.21-1.8-4-4-4H5C2.79 1 1 2.79 1 5v14Zm4 2h14c1.1 0 2-.9 2-2V5c0-1.11-.9-2-2-2H5c-1.11 0-2 .89-2 2v14c0 1.1.89 2 2 2Z"/></g></svg>
